X:196
T: HANS SATTLE MIR DEN GAUL
N: E0102
O: Europa, Mitteleuropa, Deutschland, Brandenburg
R: erzaehlendes Volks - Lied, Sage, Liebe, Leid, Tod, Verrat
M: 2/4
L: 1/16
K: C
C4 | C2G,2A,2G,2 | C6
E2 | D2C2B,2D2 | G,4z2
C2 | C2G,2A,2E,F, | G,4E,2
G,2 | C2G,2E,2D,2 | C,4

